my-project/dist/assets/images/share/facebook.svg

<svg width="45" height="45" viewBox="0 0 45 45" fill="none" xmlns="http://www.w3.org/2000/svg">
<path d="M22.5 45C34.9264 45 45 34.9264 45 22.5C45 10.0736 34.9264 0 22.5 0C10.0736 0 0 10.0736 0 22.5C0 34.9264 10.0736 45 22.5 45Z" fill="#3B5998"/>
<path d="M28.1565 23.3808H24.1416V38.0893H18.0588V23.3808H15.1658V18.2116H18.0588V14.8666C18.0588 12.4745 19.1951 8.72879 24.1958 8.72879L28.7015 8.74764V13.7652H25.4323C24.8961 13.7652 24.142 14.0331 24.142 15.1742V18.2164H28.6879L28.1565 23.3808Z" fill="white"/>
</svg>

<svg width="45" height="45" fill="none" xmlns="http://www.w3.org/2000/svg"><path d="M22.5 45C34.926 45 45 34.926 45 22.5S34.926 0 22.5 0 0 10.074 0 22.5 10.074 45 22.5 45z" fill="#3B5998"/><path d="M28.157 23.38h-4.015v14.71h-6.083V23.38h-2.893v-5.168h2.893v-3.345c0-2.393 1.136-6.138 6.137-6.138l4.505.019v5.017h-3.269c-.536 0-1.29.268-1.29 1.41v3.041h4.546l-.531 5.165z" fill="#fff"/></svg>
